icons/svg/svelte-icon.svg

<?xml version="1.0" encoding="UTF-8" standalone="no"?>
<!DOCTYPE svg PUBLIC "-//W3C//DTD SVG 1.1//EN" "http://www.w3.org/Graphics/SVG/1.1/DTD/svg11.dtd">
<svg width="100%" height="100%" viewBox="0 0 16 16" version="1.1" xmlns="http://www.w3.org/2000/svg" xmlns:xlink="http://www.w3.org/1999/xlink" xml:space="preserve" xmlns:serif="http://www.serif.com/" style="fill-rule:evenodd;clip-rule:evenodd;stroke-linejoin:round;stroke-miterlimit:2;">
    <g id="svelte">
        <path d="M13.67,2.24C12.245,0.179 9.429,-0.429 7.28,0.86L3.63,3.2C2.635,3.824 1.951,4.843 1.75,6C1.571,6.962 1.727,7.958 2.19,8.82C1.874,9.294 1.659,9.829 1.56,10.39C1.353,11.569 1.627,12.784 2.32,13.76C3.745,15.821 6.561,16.429 8.71,15.14L12.36,12.81C13.363,12.19 14.049,11.164 14.24,10C14.422,9.035 14.27,8.037 13.81,7.17C14.122,6.698 14.333,6.167 14.43,5.61C14.66,4.424 14.384,3.194 13.67,2.22" style="fill:rgb(38,39,43);fill-rule:nonzero;"/>
        <path d="M6.92,14C5.748,14.301 4.506,13.836 3.82,12.84C3.402,12.263 3.233,11.542 3.35,10.84C3.35,10.72 3.41,10.62 3.43,10.5L3.5,10.29L3.69,10.42C4.122,10.737 4.606,10.977 5.12,11.13L5.25,11.13L5.25,11.27C5.237,11.46 5.286,11.65 5.39,11.81C5.607,12.137 6.015,12.284 6.39,12.17C6.465,12.144 6.539,12.114 6.61,12.08L10.25,9.75C10.428,9.638 10.551,9.456 10.59,9.25C10.629,9.038 10.582,8.818 10.46,8.64C10.25,8.341 9.873,8.204 9.52,8.3C9.44,8.32 9.362,8.35 9.29,8.39L7.9,9.28C7.667,9.423 7.414,9.531 7.15,9.6C5.957,9.918 4.685,9.438 4,8.41C3.592,7.829 3.43,7.11 3.55,6.41C3.664,5.705 4.076,5.081 4.68,4.7L8.33,2.38C8.556,2.217 8.806,2.089 9.07,2C10.242,1.696 11.486,2.161 12.17,3.16C12.588,3.737 12.757,4.458 12.64,5.16C12.64,5.28 12.59,5.38 12.55,5.5L12.48,5.71L12.29,5.58C11.858,5.263 11.374,5.023 10.86,4.87L10.73,4.87L10.73,4.76C10.731,4.739 10.732,4.719 10.732,4.698C10.732,4.226 10.344,3.838 9.872,3.838C9.794,3.838 9.716,3.849 9.64,3.87L9.43,4L5.79,6.29C5.612,6.402 5.489,6.584 5.45,6.79C5.41,7.002 5.457,7.222 5.58,7.4C5.787,7.703 6.165,7.844 6.52,7.75L6.75,7.66L8.14,6.77C8.372,6.621 8.625,6.506 8.89,6.43C10.065,6.124 11.313,6.59 12,7.59C12.411,8.169 12.577,8.889 12.46,9.59C12.336,10.286 11.921,10.898 11.32,11.27L7.66,13.62C7.432,13.771 7.183,13.886 6.92,13.96" style="fill:rgb(131,137,154);fill-rule:nonzero;"/>
    </g>
</svg>

<svg id="logo" xmlns="http://www.w3.org/2000/svg" viewBox="0 0 16 16"><defs><style>.cls-1{fill:#585e6f;}.cls-2{fill:#747982;}</style></defs><title>svelte-icon</title><g id="svelte"><path class="cls-1" d="M13.67,2.24A4.78,4.78,0,0,0,7.28.86L3.63,3.2A4.14,4.14,0,0,0,1.75,6a4.3,4.3,0,0,0,.44,2.82,4.12,4.12,0,0,0-.63,1.57,4.48,4.48,0,0,0,.76,3.37,4.78,4.78,0,0,0,6.39,1.38l3.65-2.33A4.08,4.08,0,0,0,14.24,10a4.33,4.33,0,0,0-.43-2.83,4.12,4.12,0,0,0,.62-1.56,4.34,4.34,0,0,0-.76-3.39"/><path class="cls-2" d="M6.92,14a2.89,2.89,0,0,1-3.1-1.16,2.66,2.66,0,0,1-.47-2c0-.12.06-.22.08-.34l.07-.21.19.13a4.67,4.67,0,0,0,1.43.71l.13,0v.14a.88.88,0,0,0,.14.54.89.89,0,0,0,1,.36,2,2,0,0,0,.22-.09l3.64-2.33a.76.76,0,0,0,.34-.5.82.82,0,0,0-.13-.61.87.87,0,0,0-.94-.34.92.92,0,0,0-.23.09l-1.39.89a2.78,2.78,0,0,1-.75.32A2.89,2.89,0,0,1,4,8.41a2.69,2.69,0,0,1-.45-2A2.49,2.49,0,0,1,4.68,4.7L8.33,2.38A2.77,2.77,0,0,1,9.07,2a2.88,2.88,0,0,1,3.1,1.16,2.66,2.66,0,0,1,.47,2c0,.12-.05.22-.09.34l-.07.21-.19-.13a4.67,4.67,0,0,0-1.43-.71l-.13,0V4.76a.86.86,0,0,0-1.09-.89L9.43,4,5.79,6.29a.76.76,0,0,0-.34.5.81.81,0,0,0,.13.61.87.87,0,0,0,.94.35l.23-.09,1.39-.89a2.83,2.83,0,0,1,.75-.34A2.89,2.89,0,0,1,12,7.59a2.69,2.69,0,0,1,.46,2,2.49,2.49,0,0,1-1.14,1.68L7.66,13.62a2.63,2.63,0,0,1-.74.34"/></g></svg>
